X: 2570
T: Ballykinleer
R: reel
M: 4/4
K: Gmajor
|:BA|GE{F}E{D}E DGBd|GBgf edBG|AE{F}E{D}E AEBA|GD{A}D{G}D BDGB|
AE{F}E{D}E DGBd|GBgf edBd|ecge dgbg|agab g2:|
|:de|gabg abge|dgdB GABd|eB{c}B{A}B eBdB|A{B}AGB AGED|
GB{c}B{A}B Acec|Bd{g}d{e}d ce{f}e{d}e|DFAc BDFA|{A}G{F}GFA G2:|

